actions/22x22-dark/view-calendar-timeline.svg

<svg viewBox="0 0 22 22" xmlns="http://www.w3.org/2000/svg"><path d="m4 3c-.5540164 0-1 .4459836-1 1v14c0 .554016.4459836 1 1 1h14c .554016 0 1-.445984 1-1v-14c0-.5540164-.445984-1-1-1zm4.0136719 3.1308594-.0097657 1.7128906 4.7011718 1.3085938-4.7148436 1.2597652-.0097656 1.710938-2.9804688-3.0117189zm5.9726561 3.7460937 3.013672 2.9804689-2.980469 3.011719-.009765-1.712891-4.7148441-1.257812 4.7011721-1.310547z" fill="#f2f2f2"/></svg>

<svg xmlns="http://www.w3.org/2000/svg" viewBox="0 0 22 22">
  <defs id="defs3051">
    <style type="text/css" id="current-color-scheme">
      .ColorScheme-Text {
        color:#f2f2f2
      }
      </style>
  </defs>
 <path 
     style="fill:currentColor;fill-opacity:1;stroke:none"      
	 class="ColorScheme-Text"
        d="M 4 3 C 3.4459836 3 3 3.4459836 3 4 L 3 18 C 3 18.554016 3.4459836 19 4 19 L 18 19 C 18.554016 19 19 18.554016 19 18 L 19 4 C 19 3.4459836 18.554016 3 18 3 L 4 3 z M 8.0136719 6.1308594 L 8.0039062 7.84375 L 12.705078 9.1523438 L 7.9902344 10.412109 L 7.9804688 12.123047 L 5 9.1113281 L 8.0136719 6.1308594 z M 13.986328 9.8769531 L 17 12.857422 L 14.019531 15.869141 L 14.009766 14.15625 L 9.2949219 12.898438 L 13.996094 11.587891 L 13.986328 9.8769531 z "
     />
</svg>
